X:1
T:Lass of Richmond Hill, The
O:Duns Tew
R:reel
S:Kerr \`i Merry Melodies, vol. 3, No. 381  (c. 1880s)
M:2/4
L:1/8
P:A(AB)2(AC)2A
K:D
P:A
A|Ad dd|e/d/c/d/ eg|fd Be|d2 cA|Ad dd|e/d/c/d/ ed|cA B^G|A3|]
P:B
d|cA Ad|cA Ad|c/d/e/f/ gf|f2 ed|cA Ad|cA a>g|f/e/d ec|d3A|
Ad df|f3d|ce eg|g3g|fe/d/ ec|dB AG|F/G/A Bc|d3|]
P:C
d|cA Ad|cA Ad|c/d/e/f/ gf|f2 ed|cA Ad|cA a>g|f/e/d ec|d3A|
Ad df|f3d|ce eg|g3g|f2ed|e2c2|d2B2|A2G2|F/G/A Bc|d3|]
